X:466
T:Marie's Wedding 
C:Joe Buchanan's Scottish Tome - Page 045.2
I:045 2
Z:Carl Allison
R:Polka
L:1/8
M:2/4
K:G
"G" DE DE | "G" GA B2  | "Am" AG EG | "Am" BA "D" B2  |
"G" DE DE | "G" GA "Gb" B2  | "C" AG EG | "D7" D2 D2  |]
"G" dd de | "G" dc "Em" B2 | "Am" AG EG | "Am" BA "D7" B2  |
"G" dd de | "G" dc "Em" B2 | "Am" AG "C" EC | "D7" D2 D2  |]

